!!!!SEGMENT: pl-wtm--r-1672_stefani-jozef--marsz-zalobny.krn
!!!cenid: 18xx:2375
!!!COM: Stefani, Józef
!!!COM-rismID: pe30024097
!!!CDT: 1800/04/16-1876/03/19
!!!CNT: Polish
!!!OTL: Marsz żałobny
!!!PDT: 1842
!!!AGN:
!!!SMS-siglum: PL-Wtm
!!!SMS-shelfmark: R 1672
!!!SMS-shelfwork: W
!!!SMS-variant:
!!!SMS-altvar:
!!!NIFC-rismSourceID: 1001112760
!!!NIFC-islandoraID: pl-wtm:27870
!!!URL-pdf-islandora: https://repozytorium.nifc.pl/islandora/object/pl-wtm%3A27870/datastream/PDF/view
!!!URL-scan: https://polish.musicsources.pl/pl/lokalizacje/galeria/rekopisy/6413 @EN{Scan on Polish Music Sources Website} @PL{Skany w portalu Dziedzictwo Muzyki Polskiej w otwartym dostępie}
!!!ONB-nifc:
!!!AIN: 2 clars 1 cor 1 fagot 1 flt 1 oboe 1 picco 1 timpa 1 tromp 1 tromt
!!!key:
**kern	**dynam	**kern	**dynam	**kern	**dynam	**kern	**text	**dynam	**kern	**text	**dynam	**kern	**dynam	**kern	**dynam	**kern	**dynam	**kern	**text	**dynam	**kern	**text	**dynam
*	*	*group2	*	*group2	*	*group2	*	*	*group1	*	*	*group1	*	*group1	*	*group1	*	*group1	*	*	*group1	*	*
*part10	*part10	*part9	*part9	*part8	*part8	*part7	*part7	*part7	*part6	*part6	*part6	*part5	*part5	*part4	*part4	*part3	*part3	*part2	*part2	*part2	*part1	*part1	*part1
*staff10	*	*staff9	*	*staff8	*	*staff7	*staff7	*	*staff6	*staff6	*	*staff5	*	*staff4	*	*staff3	*	*staff2	*staff2	*	*staff1	*staff1	*
*Itimpa	*	*Itromp	*	*Itromt	*	*Icor	*	*	*Ifagot	*	*	*Iclars	*	*Iclars	*	*Ioboe	*	*Ipicco	*	*	*Iflt	*	*
*I"Tympani C. g:	*	*I"Trombe in C	*	*I"Trombone	*	*I"Corni in F.	*	*	*I"Fagotti	*	*	*I"Clarinetti in B.	*	*I"Petit Clarinetto in F.	*	*I"Oboe	*	*I"Picolo	*	*	*I"Flauto	*	*
*>[A,A,B,B,C,C,D,D,E]	*	*>[A,A,B,B,C,C,D,D,E]	*	*>[A,A,B,B,C,C,D,D,E]	*	*>[A,A,B,B,C,C,D,D,E]	*	*	*>[A,A,B,B,C,C,D,D,E]	*	*	*>[A,A,B,B,C,C,D,D,E]	*	*>[A,A,B,B,C,C,D,D,E]	*	*>[A,A,B,B,C,C,D,D,E]	*	*>[A,A,B,B,C,C,D,D,E]	*	*	*>[A,A,B,B,C,C,D,D,E]	*	*
*>A	*	*>A	*	*>A	*	*>A	*	*	*>A	*	*	*>A	*	*>A	*	*>A	*	*>A	*	*	*>A	*	*
*clefF4	*	*clefG2	*	*clefF4	*	*clefG2	*	*	*clefF4	*	*	*clefG2	*	*clefG2	*	*clefG2	*	*clefG2	*	*	*clefG2	*	*
*	*	*	*	*	*	*ITrd4c7	*	*	*	*	*	*ITrd1c2	*	*ITrd4c7	*	*	*	*ITrd0c0	*	*	*	*	*
*k[]	*	*k[b-e-a-]	*	*k[b-e-a-]	*	*k[b-]	*	*	*k[b-e-a-]	*	*	*k[b-e-a-]	*	*k[b-e-a-]	*	*k[b-e-a-]	*	*k[b-e-a-]	*	*	*k[b-e-a-]	*	*
*c:	*	*c:	*	*c:	*	*c:	*	*	*c:	*	*	*c:	*	*c:	*	*c:	*	*c:	*	*	*c:	*	*
*M4/4	*	*M4/4	*	*M4/4	*	*M4/4	*	*	*M4/4	*	*	*M4/4	*	*M4/4	*	*M4/4	*	*M4/4	*	*	*M4/4	*	*
*met(c)	*	*met(c)	*	*met(c)	*	*met(c)	*	*	*met(c)	*	*	*met(c)	*	*met(c)	*	*met(c)	*	*met(c)	*	*	*met(c)	*	*
*all\right	*	*all\right	*	*all\right	*	*all\right	*	*	*all\right	*	*	*all\right	*	*all\right	*	*all\right	*	*all\right	*	*	*all\right	*	*
*2\right	*	*2\right	*	*2\right	*	*2\right	*	*	*2\right	*	*	*2\right	*	*2\right	*	*2\right	*	*2\right	*	*	*2\right	*	*
*	*	*^	*	*	*	*	*	*	*	*	*	*^	*	*	*	*^	*	*	*	*	*	*	*
!!LO:TX:a:i:t=Maestoso.
!	!	!	!	!	!	!	!LO:TX:t=P:problem=brak znaków przykluczowych	!	!	!	!	!	!	!	!	!	!	!	!	!	!LO:TX:a:t=Col Flauto	!	!	!	!	!
4r	.	8.g/L	8.g\L	.	4r	.	8.g\L	.	.	8.G\L	.	.	8.g/L	8.g\L	f	8.g\L	.	8.g/L	8.g\L	.	8.ggyy\L	.	.	8.gg\L	.	.
.	.	16g/Jk	16g\Jk	.	.	.	16g\Jk	.	.	16G\Jk	.	.	16g/Jk	16g\Jk	.	16g\Jk	.	16g/Jk	16g\Jk	.	16ggyy\Jk	.	.	16gg\Jk	.	.
*	*	*v	*v	*	*	*	*	*	*	*	*	*	*	*	*	*	*	*	*	*	*	*	*	*	*	*
=1	=1	=1	=1	=1	=1	=1	=1	=1	=1	=1	=1	=1	=1	=1	=1	=1	=1	=1	=1	=1	=1	=1	=1	=1	=1
2C^T/	f	2e-^>/ 2g	.	2C/	.	2c^/ 2g	.	.	2E-^<\ 2c	.	.	2e-/ 2cc	2ryy	.	2cc\	.	2e-/ 2cc	2ryy	.	2cccyy\	.	.	2ccc\	.	.
2C^T/	.	2f^>/ 2a-X	.	2C/	.	2c^/ 2f	.	.	2F^<T\ 2A-	.	.	2a-T/	2f\	.	2a-T\	.	2a-T/	2f\	.	(yy2aa-yyT\	.	.	(2aa-T\	.	.
*	*	*	*	*	*	*	*	*	*	*	*	*v	*v	*	*	*	*v	*v	*	*	*	*	*	*	*
.	.	.	.	.	.	.	.	.	16qqG/LL	.	.	16qqg/LL	.	16qqg/LL	.	16qqg/LL	.	16qqggyy/LL	.	.	16qqgg/LL	.	.
.	.	.	.	.	.	.	.	.	16qqA-/JJ	.	.	16qqa-/JJ	.	16qqa-/JJ	.	16qqa-/JJ	.	16qqaa-yy/JJ)	.	.	16qqaa-/JJ)	.	.
=2	=2	=2	=2	=2	=2	=2	=2	=2	=2	=2	=2	=2	=2	=2	=2	=2	=2	=2	=2	=2	=2	=2	=2
*	*	*^	*	*	*	*	*	*	*	*	*	*	*	*	*	*	*	*	*	*	*	*	*
2CT/	>	4.e-X/ 4.g	2.ryy	.	2.C/	.	2c/ 2g	.	.	4.E-\ 4.G	.	.	4.e-/ 4.g	.	4.g\	.	4.e-/ 4.g	.	4.ggyy\	.	.	4.gg\	.	.
.	.	8d/ 8f	.	.	.	.	.	.	.	8D\ 8F	.	.	8d/ 8f	.	8f\	.	8d/ 8f	.	8ffyy\	.	.	8ff\	.	.
!	!	!	!	!LO:DY:a	!	!	!	!	!	!	!	!	!	!	!	!	!	!	!	!	!	!	!	!
4C/	.	4c/ 4e-	.	p	.	.	4c/ 4g	.	.	4C\ 4E-	.	.	4c/ 4e-	.	4e-\	.	4c/ 4e-	.	4ee-yy\	.	.	4ee-\	.	.
!	!LO:DY:a	!	!	!	!	!	!	!	!	!	!	!LO:DY:a	!LO:TX:a:t=Requiem ÷ aeternam	!	!	!	!	!	!	!	!	!	!	!
8.GG/L	] p	8.G/L 8.d	4rgg	.	4r	.	4ryy	.	.	8.GG\L 8.G	.	p	8.BX/L 8.d	.	4r	.	4r	.	4r	.	.	4r	.	.
16GG/Jk	.	16G/Jk 16d	.	.	.	.	.	.	.	16GG\Jk 16G	.	.	16B/Jk 16d	.	.	.	.	.	.	.	.	.	.	.
*	*	*v	*v	*	*	*	*	*	*	*	*	*	*	*	*	*	*	*	*	*	*	*	*	*
=3	=3	=3	=3	=3	=3	=3	=3	=3	=3	=3	=3	=3	=3	=3	=3	=3	=3	=3	=3	=3	=3	=3	=3
4C/	.	4c/ 4e-	.	1r	.	1ryy	.	.	4C\ 4G	.	.	4c/ 4e-	.	1r	.	1r	.	1r	.	.	1r	.	.
8.GG/L	.	8.G/L 8.d	.	.	.	.	.	.	8.GG\L 8.G	.	.	8.B-/L 8.d	.	.	.	.	.	.	.	.	.	.	.
16GG/Jk	.	16G/Jk 16d	.	.	.	.	.	.	16GG\Jk 16G	.	.	16B-/Jk 16d	.	.	.	.	.	.	.	.	.	.	.
4C/	.	4G/ 4c	.	.	.	.	.	.	4C\ 4E-	.	.	4G/ 4c	.	.	.	.	.	.	.	.	.	.	.
4GG/	.	4G/ 4d	.	.	.	.	.	.	4GG\ 4G	.	.	4B/ 4d	.	.	.	.	.	.	.	.	.	.	.
=4	=4	=4	=4	=4	=4	=4	=4	=4	=4	=4	=4	=4	=4	=4	=4	=4	=4	=4	=4	=4	=4	=4	=4
*	*	*^	*	*	*	*^	*	*	*	*	*	*^	*	*	*	*	*	*	*	*	*	*	*
4C/	.	4c/ 4e-	2.ryy	.	1r	.	2.ryy	2.ryy	.	.	4C\ 4G	.	.	4c/ 4e-	2.ryy	.	2r	.	2r	.	2r	.	.	2r	.	.
4GG/	.	4G/ 4d	.	.	.	.	.	.	.	.	4GG\ 4G	.	.	4BX/ 4d	.	.	.	.	.	.	.	.	.	.	.	.
2r	.	4r	.	.	.	.	.	.	.	.	4r	.	.	4r	.	.	4r	.	4r	.	4r	.	.	4r	.	.
.	.	8.g/L	8.g\L	.	.	.	8.g/L	8.g\L	.	.	8.G\L	.	.	8.g/L	8.g\L	f	8.g\L	.	8.g/L	.	8.gg\L	.	.	8.gg\L	.	.
.	.	16g/Jk	16g\Jk	.	.	.	16g/Jk	16g\Jk	.	.	16G\Jk	.	.	16g/Jk	16g\Jk	.	16g\Jk	.	16g/Jk	.	16gg\Jk	.	.	16gg\Jk	.	.
=5	=5	=5	=5	=5	=5	=5	=5	=5	=5	=5	=5	=5	=5	=5	=5	=5	=5	=5	=5	=5	=5	=5	=5	=5	=5	=5
*	*	*	*	*	*	*	*	*	*	*	*	*	*	*	*	*	*	*	*^	*	*	*	*	*	*	*
!	!	!	!	!	!	!	!	!	!	!	!	!	!	!	!	!	!	!	!	!	!	!LO:TX:a:t=Col 1o.	!	!	!	!	!
2CT/	.	2e-X/ 2cc/	2ryy	.	2C^/	.	2c/ 2g^/	2ryy	.	.	2C\ 2c	.	.	4..cc/	2e-\	.	4..cc\	.	4..cc/	2e-\	.	4..cccyy\	.	.	4..ccc\	.	.
.	.	.	.	.	.	.	.	.	.	.	.	.	.	16cc/	.	.	16cc\	.	16cc/	.	.	16cccyy\	.	.	16ccc\	.	.
2r	.	2b-X/	2f\	.	2D^/	.	2f^</	2d\	.	.	2D\ 2B-	.	.	4.b-/	2f\	.	4.b-\	.	4.b-/	2f\	.	4.bb-yy\	.	.	4.bb-\	.	.
.	.	.	.	.	.	.	.	.	.	.	.	.	.	8a-/	.	.	8a-\	.	8a-/	.	.	8aa-yy\	.	.	8aa-\	.	.
*	*	*v	*v	*	*	*	*	*	*	*	*	*	*	*	*	*	*	*	*v	*v	*	*	*	*	*	*	*
=6	=6	=6	=6	=6	=6	=6	=6	=6	=6	=6	=6	=6	=6	=6	=6	=6	=6	=6	=6	=6	=6	=6	=6	=6	=6
2GG/	.	2e-X/ 2b-X	.	8.E-\L	.	2g/	2e-X\	.	.	8.E-\L 8.B-	.	.	2g/	2e-\	.	2g\	.	2e-/ 2g	.	2ggyy\	.	.	2gg\	.	.
.	.	.	.	16E-\K	.	.	.	.	.	16E-\K 16e-	.	.	.	.	.	.	.	.	.	.	.	.	.	.	.
.	.	.	.	8.BB-\	.	.	.	.	.	8.BB-\ 8.B-	.	.	.	.	.	.	.	.	.	.	.	.	.	.	.
.	.	.	.	16GG\Jk	.	.	.	.	.	16GG\Jk 16G	.	.	.	.	.	.	.	.	.	.	.	.	.	.	.
2r	.	2r	.	4EE-/	.	4r	4ryy	.	.	4EE-/ 4E-	.	.	4r	2ryy	.	4r	.	4r	.	4ryy	.	.	4r	.	.
!	!	!	!	!	!	!	!	!	!	!	!	!	!LO:TX:a:t=dona	!	!	!	!	!	!	!	!	!	!	!	!
.	.	.	.	4r	.	8.g/L	8.e-\L	.	.	8.EE-/L 8.E-	.	.	8.g\L 8.ee-	.	.	8.ee-\L	.	8.g/L 8.ee-	.	8.eee-yy\L	.	.	8.eee-\L	.	.
.	.	.	.	.	.	16g/Jk	16e-\Jk	.	.	16EE-/Jk 16E-	.	.	16g\Jk 16ee-	.	.	16ee-\Jk	.	16g/Jk 16ee-	.	16eee-yy\Jk	.	.	16eee-\Jk	.	.
*	*	*	*	*	*	*v	*v	*	*	*	*	*	*v	*v	*	*	*	*	*	*	*	*	*	*	*
!!LO:PB:g=original
=7	=7	=7	=7	=7	=7	=7	=7	=7	=7	=7	=7	=7	=7	=7	=7	=7	=7	=7	=7	=7	=7	=7	=7
!	!	!	!	!	!	!	!	!	!	!	!	!LO:TX:b:t=eis Domine	!	!	!	!	!	!	!	!	!	!	!
1r	.	4a-/ 4cc	.	4A-\	.	4f\ 4a-X	.	.	4AA-\ 4A-	.	.	4a-\ 4cc	.	4cc\	.	4a-/ 4cc	.	4cccyy\	.	.	4ccc\	.	.
.	.	8.f/L 8.a-	.	4r	.	8.f\L 8.a-	.	.	8.AA-\L 8.A-	.	.	8.f/L 8.a-	.	8.a-\L	.	8.a-\L 8.ff	.	8.aa-yy\L	.	.	8.aa-\L	.	.
.	.	16f/Jk 16a-	.	.	.	16f\Jk 16a-	.	.	16AA-\Jk 16A-	.	.	16f/Jk 16a-	.	16a-\Jk	.	16a-\Jk 16ff	.	16aa-yy\Jk	.	.	16aa-\Jk	.	.
.	.	4e-/ 4g	.	4B-\	.	4g\ 4b-	.	.	4BB-\ 4B-	.	.	4e-/ 4g	.	4g\	.	4g\ 4ee-	.	4ggyy\	.	.	4gg\	.	.
.	.	4d/ 4f	.	4BB-/	.	4f\ 4b-	.	.	4BB-\ 4A-	.	.	4d/ 4f	.	4f\	.	4a-\ 4dd	.	4ffyy\	.	.	4ff\	.	.
=	=	=	=	=	=	=	=	=	=	=	=	=	=	=	=	=	=	=	=	=	=	=	=
*	*	*	*	*	*	*	*	*	*	*	*	*^	*	*	*	*	*	*	*	*	*	*	*
4r	.	4e-/ 4g	.	8.E-\L	.	4g\ 4b-	.	.	8.E-\L 8.G	.	.	4e-/	4e-\	.	4e-\	.	4g\ 4ee-	.	4ee-yy\	.	.	4ee-\	.	.
.	.	.	.	16E-\K	.	.	.	.	16E-\K 16e-	.	.	.	.	.	.	.	.	.	.	.	.	.	.	.
8.GG/L	.	8.e-/L 8.g	.	8.BB-\	.	8.g\L 8.b-	.	.	8.BB-\ 8.B-	.	.	8.g\L 8.ee-	2ryy	.	8.ee-\L	.	8.g\L 8.ee-	.	8.eee-yy\L	.	.	8.eee-\L	.	.
16GG/Jk	.	16e-/Jk 16g	.	16GG\Jk	.	16g\Jk 16b-	.	.	16GG\Jk 16G	.	.	16g\Jk 16ee-	.	.	16ee-\Jk	.	16g\Jk 16ee-	.	16eee-yy\Jk	.	.	16eee-\Jk	.	.
4GG/	.	4e-/ 4g	.	4EE-/	.	4g\ 4b-	.	.	4EE-/ 4E-	.	.	4g\ 4ee-	.	.	4ee-\	.	4g\ 4ee-	.	4eee-yy\	.	.	4eee-\	.	.
*	*	*	*	*	*	*	*	*	*	*	*	*v	*v	*	*	*	*	*	*	*	*	*	*	*
=8:|!|:	=8:|!|:	=8:|!|:	=8:|!|:	=8:|!|:	=8:|!|:	=8:|!|:	=8:|!|:	=8:|!|:	=8:|!|:	=8:|!|:	=8:|!|:	=8:|!|:	=8:|!|:	=8:|!|:	=8:|!|:	=8:|!|:	=8:|!|:	=8:|!|:	=8:|!|:	=8:|!|:	=8:|!|:	=8:|!|:	=8:|!|:
*>B	*>B	*>B	*>B	*>B	*>B	*>B	*>B	*>B	*>B	*>B	*>B	*>B	*>B	*>B	*>B	*>B	*>B	*>B	*>B	*>B	*>B	*>B	*>B
!	!	!	!	!	!	!	!	!	!LO:TX:b:t=Et lux	!	!	!	!	!	!	!	!	!	!	!	!	!	!
4r	.	4r	.	4r	.	4r	.	.	4r	.	.	8.g|\L 8.gg	.	4r	.	4r	.	4r	.	.	4r	.	.
.	.	.	.	.	.	.	.	.	.	.	.	16g|\Jk 16gg	.	.	.	.	.	.	.	.	.	.	.
=9	=9	=9	=9	=9	=9	=9	=9	=9	=9	=9	=9	=9	=9	=9	=9	=9	=9	=9	=9	=9	=9	=9	=9
*	*	*	*	*	*	*	*	*	*^	*	*	*	*	*	*	*^	*	*	*	*	*	*	*
1r	.	8.r	.	8.r	.	8.r	.	.	8.r	2ryy	.	.	8.BX|/L 8.bX	.	1r	.	8.r	8.ryy	mf	1r	.	.	1r	.	.
!	!	!	!	!	!	!LO:TX:b:t=Et - lux	!	!	!LO:TX:b:t=et lux	!	!	!	!	!	!	!	!	!	!	!	!	!	!	!	!
.	.	16A-X/KL 16Bn	.	16F\KL	p	16f\KL 16a-X	.	.	16F\KL 16A-	.	.	.	16B|/K 16b	.	.	.	16bn|/KL	16a-\KL	.	.	.	.	.	.	.
!	!	!	!	!	!	!LO:TX:t=P:LO:N:vis=16.:problem	!	!	!	!	!	!	!	!	!	!	!	!	!	!	!	!	!	!	!
.	.	8.G/ 8.c	.	8.E-|\	.	8.g\	.	.	8.E-\ 8.G	.	.	.	8.c|/ 8.cc	.	.	.	8.cc|/	8.g\	.	.	.	.	.	.	.
.	.	16G/Jk 16d	.	16BBn|\Jk	.	16g\Jk	.	.	16BBn\Jk 16F	.	.	.	16d|/Jk 16dd	.	.	.	16dd|/Jk	16f\Jk	.	.	.	.	.	.	.
.	.	4G/ 4e-	.	4C\	.	4c/ 4g	.	.	4E-/	4C\	.	.	4e-|/ 4ee-	.	.	.	4ee-|/	4e-\	.	.	.	.	.	.	.
!	!	!	!	!	!	!	!	!	!	!	!	!	!LO:TX:a:t=per pe-tua	!	!	!	!	!	!	!	!	!	!	!	!
.	.	4r	.	4r	.	4r	.	.	4r	4ryy	.	.	8.g/L 8.gg	.	.	.	4r	4ryy	.	.	.	.	.	.	.
.	.	.	.	.	.	.	.	.	.	.	.	.	16g/Jk 16gg	.	.	.	.	.	.	.	.	.	.	.	.
=10	=10	=10	=10	=10	=10	=10	=10	=10	=10	=10	=10	=10	=10	=10	=10	=10	=10	=10	=10	=10	=10	=10	=10	=10	=10
*	*	*	*	*	*	*^	*	*	*	*	*	*	*^	*	*	*	*	*	*	*	*	*	*	*	*
2r	.	8.r	.	8.r	.	8.r	2.ryy	.	.	8.r	2ryy	.	.	8.BX|/L 8.bX	2.ryy	.	2r	.	8.r	8.ryy	.	2r	.	.	2r	.	.
!	!	!	!	!	!	!LO:TX:b:t=perpetua	!	!	!	!	!	!	!	!	!	!	!	!	!	!	!	!	!	!	!	!	!
.	.	16A-X/KL 16Bn	.	16F\KL	.	16f\KL 16a-X	.	.	.	16F\KL 16A-	.	.	.	16B|/K 16b	.	.	.	.	16bn/KL	16a-\KL	.	.	.	.	.	.	.
.	.	8.G/ 8.c	.	8.E-\	.	8.g\	.	.	.	8.E-\ 8.G	.	.	.	8.c|/ 8.cc	.	.	.	.	8.cc/	8.g\	.	.	.	.	.	.	.
.	.	16G/Jk 16d	.	16BBn\Jk	.	16g\Jk	.	.	.	16BBn\Jk 16F	.	.	.	16d|/Jk 16dd	.	.	.	.	16dd/Jk	16f\Jk	.	.	.	.	.	.	.
4r	.	4G/ 4e-	.	4C\	.	4c/ 4g	.	.	.	4E-/	4C\	.	.	4e-|/ 4ee-	.	.	4r	.	4ee-/	4e-\	.	4r	.	.	4r	.	.
!	!	!	!	!	!	!	!	!	!	!	!	!	!	!	!	!	!	!	!	!	!	!	!	!	!	!	!LO:DY:b
8.GG/L	.	8.G/L 8.g	.	4r	.	8.g/L	8.g\L	.	.	8.GG\L 8.G	4ryy	.	.	8.g/L	8.g\L	f	8.g\L	.	8.g\L 8.gg	4ryy	f	8.gg\L	.	.	8.gg\L	.	f
16GG/Jk	.	16G/Jk 16g	.	.	.	16g/Jk	16g\Jk	.	.	16GG\Jk 16G	.	.	.	16g/Jk	16g\Jk	.	16g\Jk	.	16g\Jk 16gg	.	.	16gg\Jk	.	.	16gg\Jk	.	.
*	*	*	*	*	*	*	*	*	*	*v	*v	*	*	*	*	*	*	*	*v	*v	*	*	*	*	*	*	*
=11	=11	=11	=11	=11	=11	=11	=11	=11	=11	=11	=11	=11	=11	=11	=11	=11	=11	=11	=11	=11	=11	=11	=11	=11	=11
*	*	*^	*	*	*	*	*	*	*	*	*	*	*	*	*	*	*	*	*	*	*	*	*	*	*
!	!	!	!	!	!	!	!	!	!	!	!LO:TX:b:t=Lu-ceat e-is	!	!	!	!	!	!	!	!	!	!	!	!	!	!	!
2C/	.	2c/ 2cc	2.ryy	.	2C/	.	2c/	2c\	.	.	2C\ 2c	.	.	2cc/	2cc\	.	2cc\	.	2cc\ 2ccc	.	2ccc\	.	.	2ccc\	.	.
.	.	.	.	.	.	.	.	.	.	.	(<16qqC/LL 16qqc	.	.	16qqcc/LL	.	.	(16qqcc/LL	.	(<16qqcc/LL 16qqccc	.	16qqccc/LL	.	.	16qqccc/LL	.	.
.	.	.	.	.	.	.	.	.	.	.	16qqD/JJ 16qqd	.	.	16qqdd/JJ	.	.	16qqdd/JJ	.	16qqdd/JJ 16qqddd	.	16qqddd/JJ	.	.	16qqddd/JJ	.	.
2r	.	4e-X/ 4ee-X	.	.	4E-X\	.	4e-X/	4e-\	.	.	4E-\) 4e-	.	.	4ee-\	4ryy	.	4ee-\)	.	4ee-\ 4eee-)	.	4eee-\	.	.	4eee-\	.	.
.	.	4f#X/	4f#\	.	4F#X\	.	4f#X/	4f#\	.	.	4FF#X/ 4F#X	.	.	4f#X/	4f#\	.	4f#X\	.	4f#X/ 4ff#X	.	4ff#X\	.	.	4ff#X\	.	.
*	*	*	*	*	*	*	*	*	*	*	*	*	*	*v	*v	*	*	*	*	*	*	*	*	*	*	*
=12	=12	=12	=12	=12	=12	=12	=12	=12	=12	=12	=12	=12	=12	=12	=12	=12	=12	=12	=12	=12	=12	=12	=12	=12	=12
*	*	*	*	*	*	*	*	*	*	*	*	*	*	*	*	*	*	*^	*	*	*	*	*	*	*
8GG/	.	8g/	8g\	.	8.G\	p	8g/	8g\	.	.	8.GG/ 8.G	.	.	8.g/L	p	8g\	.	8g/ 8gg	2.ryy	.	8gg\	.	.	8gg\	.	.
8r	.	8r	2ryy	.	.	.	8r	2ryy	.	.	.	.	.	.	.	8r	.	8r	.	.	8r	.	.	8r	.	.
!	!	!	!	!	!	!	!	!	!	!	!	!	!	!	!LO:HP:a	!	!	!	!	!	!	!	!	!	!	!
.	.	.	.	.	(16A-|\KL	.	.	.	.	.	(16A-X\KL 16Bn	.	.	(>16d|>/K 16f	<	.	.	.	.	.	.	.	.	.	.	.
!	!	!	!	!	!	!	!	!	!	!	!	!	!LO:HP:b	!	!	!	!	!	!	!	!	!	!	!	!	!
4r	.	4r	.	.	8.G\)	.	4r	.	.	.	8.G\) 8.c	.	<	8.c/) 8.e-	.	4r	.	4r	.	.	4r	.	.	4r	.	.
.	.	.	.	.	(16A-|\Jk	<	.	.	.	.	(16A-\Jk 16B	.	.	(>16d|>/Jk 16f	.	.	.	.	.	.	.	.	.	.	.	.
4r	.	4r	.	.	8.G\L)	.	4r	.	.	.	8.G\L) 8.c	.	.	8.c/L) 8.e-	.	4r	.	4r	.	.	4r	.	.	4r	.	.
.	.	.	8ryy	.	.	.	.	8ryy	.	.	.	.	.	.	.	.	.	.	.	.	.	.	.	.	.	.
.	.	.	.	.	(16F|\K	.	.	.	.	.	(16F\K 16B	.	.	(>16d/K 16a-	.	.	.	.	.	.	.	.	.	.	.	.
8.GG/L	.	8.g/L	8.g\L	.	8.E-\)	.	8.g/L	8.g\L	.	.	8.E-\) 8.c	.	[	8.e-/) 8.g	.	8.g\L	.	8.g/L	8.g\L	f	8.gg\L	.	f	8.gg\L	.	.
16GG/Jk	.	16g/Jk	16g\Jk	.	16D|\Jk	[[	16g/Jk	16g\Jk	.	.	16D|\Jk 16d	.	.	16f|/Jk 16bX	[	16g\Jk	.	16g/Jk	16g\Jk	.	16gg\Jk	.	.	16gg\Jk	.	.
*	*	*v	*v	*	*	*	*v	*v	*	*	*	*	*	*	*	*	*	*v	*v	*	*	*	*	*	*	*
=13	=13	=13	=13	=13	=13	=13	=13	=13	=13	=13	=13	=13	=13	=13	=13	=13	=13	=13	=13	=13	=13	=13	=13
*	*	*	*	*	*	*	*	*	*^	*	*	*^	*	*	*	*	*	*	*	*	*	*	*
!	!	!	!	!	!	!	!	!	!	!	!	!LO:DY:b	!	!	!	!	!	!	!	!	!	!	!	!	!
2CT/	.	2e-^>/ 2g	.	2C^/	.	2c^/ 2g	.	.	2c\	2C\	.	f	2e-/ 2cc/	2ryy	f	2cc\	.	2e-/ 2cc	.	2ccc\	.	f	2ccc\	.	.
2CT/	.	2f^>/ 2a-	.	2C^/	.	2c^/ 2f	.	.	2A-T/	2F\	.	.	2a-T/	2f\	.	2a-T\	.	2fT/ 2a-	.	2aa-T\	.	.	2aa-T\	.	.
*	*	*	*	*	*	*	*	*	*v	*v	*	*	*	*	*	*	*	*	*	*	*	*	*	*	*
*	*	*	*	*	*	*	*	*	*	*	*	*v	*v	*	*	*	*	*	*	*	*	*	*	*
.	.	.	.	.	.	.	.	.	(16qqEn/LL 16qqG	.	.	(16qqeX/LL 16qqg	.	(16qqg/LL	.	(16qqen/LL 16qqg	.	(16qqggn/LL	.	.	(16qqggn/LL	.	.
.	.	.	.	.	.	.	.	.	16qqF/JJ 16qqA-)	.	.	16qqf/JJ 16qqa-)	.	16qqa-/JJ)	.	16qqf/JJ 16qqa-)	.	16qqaa-/JJ)	.	.	16qqaa-/JJ)	.	.
!!LO:PB:g=original
=14	=14	=14	=14	=14	=14	=14	=14	=14	=14	=14	=14	=14	=14	=14	=14	=14	=14	=14	=14	=14	=14	=14	=14
2CT/	.	4.e-/ 4.g	.	2.C/	.	2.c/ 2.g	.	.	4.E-\ 4.G	.	.	4.e-/ 4.g	.	4.g\	.	4.e-/ 4.g	.	4.gg\	.	.	4.gg\	.	.
.	.	8d/ 8f	.	.	.	.	.	.	8D\ 8F	.	.	8d/ 8f	.	8f\	.	8d/ 8f	.	8ff\	.	.	8ff\	.	.
4C/	.	4c/ 4e-	.	.	.	.	.	.	4C\ 4E-	.	.	4c/ 4e-	.	4e-\	.	4c'/ 4e-	.	4ee-\	.	.	4ee-\	.	.
!	!LO:DY:a	!	!	!	!	!	!	!	!	!	!	!	!	!	!	!	!	!	!	!	!	!	!
!	!	!	!	!	!	!	!	!	!	!	!LO:DY:b	!	!	!	!	!	!	!	!	!	!	!	!
8.GG/L	p	8.G/L 8.d	.	4r	.	4r	.	.	8.GG\L 8.G	.	p	8.BX/L 8.d	.	4r	.	4r	.	4r	.	.	4r	.	.
16GG/Jk	.	16G/Jk 16d	.	.	.	.	.	.	16GG\Jk 16F	.	.	16B/Jk 16d	.	.	.	.	.	.	.	.	.	.	.
=15	=15	=15	=15	=15	=15	=15	=15	=15	=15	=15	=15	=15	=15	=15	=15	=15	=15	=15	=15	=15	=15	=15	=15
*	*	*^	*	*	*	*^	*	*	*	*	*	*	*	*	*	*	*	*	*	*	*	*	*
4C/	.	4c/	4ryy	.	2r	.	2r	2.ryy	.	.	4C\ 4E-	.	.	4c/	.	1r	.	1r	.	1r	.	.	1r	.	.
8.C/L	.	8.d/L	4.A-\ 4.c	.	.	.	.	.	.	.	8.F\L 8.A-	.	.	8.c/L 8.d	.	.	.	.	.	.	.	.	.	.	.
16C/Jk	.	16d/Jk	.	.	.	.	.	.	.	.	16F\Jk 16A-	.	.	16c/Jk 16d	.	.	.	.	.	.	.	.	.	.	.
4C/	.	4c/ 4e-	.	.	4G\	.	4r	.	.	.	4G\	.	.	4c/ 4e-	.	.	.	.	.	.	.	.	.	.	.
.	.	.	4.ryy	.	.	.	.	.	.	.	.	.	.	.	.	.	.	.	.	.	.	.	.	.	.
4GG/	.	4G/ 4d	.	.	4GG/	.	4g/	4g\	.	.	4GG\ 4G	.	.	4BX/ 4d	.	.	.	.	.	.	.	.	.	.	.
*	*	*v	*v	*	*	*	*v	*v	*	*	*	*	*	*	*	*	*	*	*	*	*	*	*	*	*
=	=	=	=	=	=	=	=	=	=	=	=	=	=	=	=	=	=	=	=	=	=	=	=
4C/	.	4c/	.	4C/	.	4c/ 4g	.	.	4C\ 4E-	.	.	4c/	.	4r	.	4r	.	4r	.	.	4r	.	.
!	!	!	!LO:DY:a	!	!	!	!	!	!	!	!	!	!	!	!	!	!	!	!	!	!	!	!
!	!LO:DY:a	!	!	!	!	!	!	!	!	!	!	!	!	!	!	!	!	!	!	!	!	!	!
8.C/L	f	8.e-/L 8.cc	f	8.C/L	.	8.c/L 8.g	.	.	8.C\L 8.c	.	f	8.e-/L 8.cc	.	8.cc\L	.	8.ee-\ 8.gg\L	.	8.ccc\L	.	.	8.ccc\L	.	.
16C/Jk	.	16e-/Jk 16cc	.	16C/Jk	.	16c/Jk 16g	.	.	16C\Jk 16c	.	.	16e-/Jk 16cc	.	16cc\Jk	.	16ee-\ 16gg\Jk	.	16ccc\Jk	.	.	16ccc\Jk	.	.
4C/	.	4e-/ 4cc	.	4C/	.	4c/ 4g	.	.	4C\ 4c	.	.	4e-/ 4cc	.	4cc\	.	4ee- 4gg\	.	4ccc\	.	.	4ccc\	.	.
*kcancel	*	*	*	*	*	*	*	*	*	*	*	*	*	*	*	*	*	*	*	*	*	*	*
=16:|!|:	=16:|!|:	=16:|!|:	=16:|!|:	=16:|!|:	=16:|!|:	=16:|!|:	=16:|!|:	=16:|!|:	=16:|!|:	=16:|!|:	=16:|!|:	=16:|!|:	=16:|!|:	=16:|!|:	=16:|!|:	=16:|!|:	=16:|!|:	=16:|!|:	=16:|!|:	=16:|!|:	=16:|!|:	=16:|!|:	=16:|!|:
*>C	*>C	*>C	*>C	*>C	*>C	*>C	*>C	*>C	*>C	*>C	*>C	*>C	*>C	*>C	*>C	*>C	*>C	*>C	*>C	*	*>C	*>C	*>C
*k[]	*	*k[]	*	*k[]	*	*k[b-]	*	*	*k[]	*	*	*k[b-e-]	*	*k[]	*	*k[]	*	*k[]	*	*	*k[]	*	*
*	*	*	*	*	*	*	*	*	*	*	*	*^	*	*	*	*	*	*	*	*	*	*	*
!LO:TX:t=P:problem=kasownik Bn przy zmianie tonacji	!	!	!	!	!	!LO:TX:t=P:problem=brak znaków przykluczowych	!	!	!	!	!	!LO:TX:t=P:problem=brak znaków przykluczowych	!	!	!	!	!	!	!	!	!	!	!	!
4r	.	4r	.	4r	.	4r	.	.	4r	.	.	8.g/L	8.g\L	.	4r	.	8.g/L	.	8.ggyy\L	.	.	8.gg\L	.	.
.	.	.	.	.	.	.	.	.	.	.	.	16g/Jk	16g\Jk	.	.	.	16g/Jk	.	16ggyy\Jk	Te	.	16gg\Jk	Te	.
=17	=17	=17	=17	=17	=17	=17	=17	=17	=17	=17	=17	=17	=17	=17	=17	=17	=17	=17	=17	=17	=17	=17	=17	=17
*	*	*	*	*	*	*	*	*	*	*	*	*	*	*	*	*	*^	*	*	*	*	*	*	*
1r	.	2c^/ 2e	.	2C/	.	2c/ 2g	.	.	2E^<\ 2c	.	.	2eeX/	2cc\	.	1r	.	2ee/	2cc\	.	2eeeyy\	de-	.	2eee\	de-	.
!	!	!	!	!	!	!	!	!	!	!	!	!LO:SIC:v:s=2cc#	!	!	!	!	!	!	!	!	!	!	!	!	!
.	.	2d^/ 2g	.	2G\	.	2BX/ 2g	.	.	2G^<\ 2d	.	.	4.dd/	2b-\	.	.	.	4.dd/	2b\	.	4.dddyy\	-cet	.	4.ddd\	-cet	.
.	.	.	.	.	.	.	.	.	.	.	.	8ee/	.	.	.	.	8ee/	.	.	8eeeyy\	.	.	8eee\	.	.
=18	=18	=18	=18	=18	=18	=18	=18	=18	=18	=18	=18	=18	=18	=18	=18	=18	=18	=18	=18	=18	=18	=18	=18	=18	=18
*	*	*	*	*	*	*^	*	*	*	*	*	*	*	*	*	*	*	*	*	*	*	*	*	*	*
4r	.	4r	.	8.A\L	.	2.a/	2.c\	.	.	8.A\L 8.c	.	.	[2cc/	[>2a\	.	1r	.	[2cc/	[>2a\	.	[yy2cccyy\	hym-	.	[2ccc\	hym-	.
.	.	.	.	16A\K	.	.	.	.	.	16A\K	.	.	.	.	.	.	.	.	.	.	.	.	.	.	.	.
8.C/L	.	8.e/L 8.cc	.	8.E\	.	.	.	.	.	8.E\	.	.	.	.	.	.	.	.	.	.	.	.	.	.	.	.
16C/Jk	.	16e/Jk 16cc	.	16C\Jk	.	.	.	.	.	16C\Jk	.	.	.	.	.	.	.	.	.	.	.	.	.	.	.	.
4C/	.	4e/ 4cc	.	4AA/	.	.	.	.	.	4AA/	.	.	8.a\L 8.cc]	2ryy	.	.	.	8.a\L 8.cc]	2ryy	.	8.cccyy\L]yy	-nus	.	8.ccc\L]	-nus	.
.	.	.	.	.	.	.	.	.	.	.	.	.	16a|\K 16cc	.	.	.	.	16a|\K 16cc	.	.	16cccyy|\K	.	.	16ccc|\K	.	.
4r	.	4r	.	4r	.	4r	4ryy	.	.	4r	.	.	8.bX|\ 8.dd	.	.	.	.	8.b|\ 8.dd	.	.	8.dddyy|\	De-	.	8.ddd|\	De-	.
.	.	.	.	.	.	.	.	.	.	.	.	.	16cc|\Jk 16eeX	.	.	.	.	16cc|\Jk 16ee	.	.	16eeeyy|\Jk	-us	.	16eee|\Jk	-us	.
=19	=19	=19	=19	=19	=19	=19	=19	=19	=19	=19	=19	=19	=19	=19	=19	=19	=19	=19	=19	=19	=19	=19	=19	=19	=19	=19
*	*	*^	*	*	*	*	*	*	*	*^	*	*	*	*	*	*	*	*	*	*	*	*	*	*	*	*
1r	.	2dd\	2dd/	.	2D\	.	2a/	2f\	.	.	2A\	2D\	.	.	2ff/	2dd\	.	1r	.	2ff/	2dd\	.	2fffyy\	in	.	2fff\	in	.
.	.	4.g/ 4.dd	2ryy	.	2GG/	.	2g/	2g\	.	.	2G/	2G\	.	.	4.dd/	4.bX\	.	.	.	4.dd/	4.b\	.	4.dddyy\	si-	.	4.ddd\	si-	.
.	.	8g/ 8dd	.	.	.	.	.	.	.	.	.	.	.	.	8dd/	8b\	.	.	.	8dd/	8b\	.	8dddyy\	.	.	8ddd\	.	.
*	*	*v	*v	*	*	*	*v	*v	*	*	*	*	*	*	*	*	*	*	*	*	*	*	*	*	*	*	*	*
*	*	*	*	*	*	*	*	*	*v	*v	*	*	*	*	*	*	*	*	*	*	*	*	*	*	*	*
=20	=20	=20	=20	=20	=20	=20	=20	=20	=20	=20	=20	=20	=20	=20	=20	=20	=20	=20	=20	=20	=20	=20	=20	=20	=20
4r	.	4cc\ 4ee	.	8.C/L	.	2.c/ 2.a	.	.	8.C\L 8.c	.	.	2.eeX/	2.cc\	.	2r	.	2.ee/	2.cc\	.	2.eeeyy\	-on	.	2.eee\	-on	.
.	.	.	.	16C/K	.	.	.	.	16C\K	.	.	.	.	.	.	.	.	.	.	.	.	.	.	.	.
8.C/L	.	8.e/L 8.cc	.	8.E/	.	.	.	.	8.E\	.	.	.	.	.	.	.	.	.	.	.	.	.	.	.	.
16C/Jk	.	16e/Jk 16cc	.	16G/Jk	.	.	.	.	16G\Jk	.	.	.	.	.	.	.	.	.	.	.	.	.	.	.	.
4C/	.	4e/ 4cc	.	4c\	.	.	.	.	4c\	.	.	.	.	.	4r	.	.	.	.	.	.	.	.	.	.
4r	.	4r	.	4r	.	4r	.	.	4r	.	.	8.g/L	8.g/L	.	8.g\L	.	8.g/L	4ryy	.	8.ggyy\L	Et	.	8.gg\L	Et	.
.	.	.	.	.	.	.	.	.	.	.	.	16g/Jk	16g/Jk	.	16g\Jk	.	16g/Jk	.	.	16ggyy\Jk	.	.	16gg\Jk	.	.
!!LO:PB:g=original
=21	=21	=21	=21	=21	=21	=21	=21	=21	=21	=21	=21	=21	=21	=21	=21	=21	=21	=21	=21	=21	=21	=21	=21	=21	=21
*	*	*	*	*	*	*^	*	*	*	*	*	*	*	*	*	*	*	*	*	*	*	*	*	*	*
!	!	!	!	!	!	!	!	!	!	!	!	!	!	!	!	!	!	!	!	!LO:HP:a	!	!	!	!	!	!
2CT/	.	2c/ 2e	.	2C/	.	2c/ 2g/	2ryy	.	.	2C\ 2c	.	.	2eeX/	2cc\	<	2ee\	<	2ee/	2cc\	<	2eeeyy\	ti-	.	2eee\	ti-	.
4.C/	.	4.c/ 4.f#X	.	4.AA/	<	2a/	2f#X\	.	.	4.AA\ 4.A	.	.	4.ff#X/	4.cc\	.	4.ff#X\	.	4.ff#X/	4.cc\	.	4.fffyy#X\	-bi	.	4.fff#X\	-bi	.
8C/	.	8c/ 8f#	.	8AA/	[[	.	.	.	.	8AA\ 8A	.	.	8ff#/	8cc\	[	8ff#\	[[	8ff#/	8cc\	[[	8fffyy#\	red-	.	8fff#\	red-	.
*	*	*	*	*	*	*	*	*	*	*	*	*	*v	*v	*	*	*	*v	*v	*	*	*	*	*	*	*
=22	=22	=22	=22	=22	=22	=22	=22	=22	=22	=22	=22	=22	=22	=22	=22	=22	=22	=22	=22	=22	=22	=22	=22	=22
!	!	!	!	!LO:TX:t=P:problem=mixed beam	!	!	!	!	!	!	!	!	!	!	!	!	!	!LO:DY:a	!	!	!	!	!	!
2GGT/	.	2.B/ 2.g	.	8.GG/L	>	2.g/	2.g\	.	.	8.GG\L 8.G	.	.	2.bX\ 2.gg	>	2.gg\	>	2.b\ 2.gg	>	2.gggyy\	-detur	.	2.ggg\	-detur	.
.	.	.	.	16G\K	.	.	.	.	.	16G\K	.	.	.	.	.	.	.	.	.	.	.	.	.	.
.	.	.	.	8.D\	]	.	.	.	.	8.D\	.	.	.	.	.	.	.	.	.	.	.	.	.	.
.	.	.	.	16BB\Jk	.	.	.	.	.	16BB\Jk	.	.	.	.	.	.	.	.	.	.	.	.	.	.
4GG/	.	.	.	4GG/	.	.	.	.	.	4GG/	.	.	.	.	.	.	.	.	.	.	.	.	.	.
4r	.	8.c/L 8.e	.	4r	.	4r	4ryy	.	.	8.C/L	.	.	8.cc\L 8.eeX	]	4r	]	8.cc\L 8.ee	]	8.eeeyy\L	vo-	.	8.eee\L	vo-	.
.	.	16c/Jk 16e	.	.	.	.	.	.	.	16C/Jk	.	.	16cc\Jk 16ee	.	.	.	16cc\Jk 16ee	.	16eeeyy\Jk	-tum	.	16eee\Jk	-tum	.
=23	=23	=23	=23	=23	=23	=23	=23	=23	=23	=23	=23	=23	=23	=23	=23	=23	=23	=23	=23	=23	=23	=23	=23	=23
*	*	*	*	*	*	*	*	*	*	*	*	*	*^	*	*	*	*^	*	*	*	*	*	*	*
1r	.	4d/	.	2r	.	2r	2ryy	.	.	2D\	.	.	8.bX\L 8.dd	4ryy	.	1r	.	8.b\L 8.dd	4ryy	.	(yy8.dddyy\L	in	.	(8.ddd\L	in	.
.	.	.	.	.	.	.	.	.	.	.	.	.	16a\Jk 16cc	.	.	.	.	16a\Jk 16cc	.	.	16cccyy\Jk)yy	.	.	16ccc\Jk)	.	.
.	.	4r	.	.	.	.	.	.	.	.	.	.	4b/	[4g\	.	.	.	4b/	[4g\	.	4bbyy\	Je-	.	4bb\	Je-	.
.	.	2r	.	2D\	.	2a/	4g\	.	.	2D\ 2c	.	.	4a/	4g\]	.	.	.	4a/	4g\]	.	4aayy\	-ru-	.	4aa\	-ru-	.
.	.	.	.	.	.	.	4f#X\	.	.	.	.	.	4dd/	4f#X\	.	.	.	4dd/	4f#X\	.	4dddyy\	-sa-	.	4ddd\	-sa-	.
=	=	=	=	=	=	=	=	=	=	=	=	=	=	=	=	=	=	=	=	=	=	=	=	=	=	=
4r	.	4r	.	4G\	.	4g/	4g\	.	.	4G\ 4B	.	.	4bX/	4g\	.	2r	.	4b/	4g\	.	4ggyy\	-lem;	.	4gg\	-lem;	.
8.GG/L	.	8.G/L 8.d	.	8.G\L	.	8.g/L	8.g\L	.	.	8.GG/L 8.G	.	.	8.b\L 8.gg	2ryy	.	.	.	8.b\L 8.gg	2ryy	.	8.gggyy\L	.	.	8.ggg\L	.	.
16GG/Jk	.	16G/Jk 16d	.	16G\Jk	.	16g/Jk	16g\Jk	.	.	16GG/Jk 16G	.	.	16b\Jk 16gg	.	.	.	.	16b\Jk 16gg	.	.	16gggyy\Jk	.	.	16ggg\Jk	.	.
4GG/	.	4G/ 4d	.	4G\	.	4g/	4g\	.	.	4GG/ 4G	.	.	4b\ 4gg	.	.	4r	.	4b\ 4gg	.	.	4gggyy\	.	.	4ggg\	.	.
*	*	*	*	*	*	*	*	*	*	*	*	*	*v	*v	*	*	*	*v	*v	*	*	*	*	*	*	*
=24:|!|:	=24:|!|:	=24:|!|:	=24:|!|:	=24:|!|:	=24:|!|:	=24:|!|:	=24:|!|:	=24:|!|:	=24:|!|:	=24:|!|:	=24:|!|:	=24:|!|:	=24:|!|:	=24:|!|:	=24:|!|:	=24:|!|:	=24:|!|:	=24:|!|:	=24:|!|:	=24:|!|:	=24:|!|:	=24:|!|:	=24:|!|:	=24:|!|:
*>D	*>D	*>D	*>D	*>D	*>D	*>D	*>D	*>D	*>D	*>D	*>D	*>D	*>D	*>D	*>D	*>D	*>D	*>D	*>D	*>D	*>D	*>D	*>D	*>D
!	!	!	!	!	!	!	!	!	!	!	!	!	!	!	!LO:TX:t=P:problem=partia zamieniona miejscem z Oboe	!	!LO:TX:t=P:problem=partia zamieniona miejscem z Petit Clarinetto	!	!	!	!	!	!	!
!	!	!	!	!	!	!	!	!	!	!	!	!	!	!	!LO:TX:a:t=Petit Clarinetto	!	!LO:TX:a:t=Oboe	!	!LO:TX:a:t=Col 1o	!	!	!	!	!
4r	.	4r	.	4r	.	4r	4ryy	.	.	4r	.	.	8.g/L	.	8.g\L	.	8.g/L	.	8.ggyy\L	Ex	.	8.gg\L	Ex	.
.	.	.	.	.	.	.	.	.	.	.	.	.	16g/Jk	.	16g\Jk	.	16g/Jk	.	16ggyy\Jk	.	.	16gg\Jk	.	.
=25	=25	=25	=25	=25	=25	=25	=25	=25	=25	=25	=25	=25	=25	=25	=25	=25	=25	=25	=25	=25	=25	=25	=25	=25
*	*	*	*	*	*	*	*	*	*	*	*	*	*^	*	*	*	*	*	*	*	*	*	*	*
!	!	!	!	!	!	!	!	!	!	!	!	!	!	!	!	!	!	!	!	!	!	!	!	!	!LO:HP:b
!	!	!	!	!	!	!	!	!	!	!	!	!	!	!	!	!	!	!	!	!	!	!LO:HP:b	!	!	!
!	!	!	!	!	!	!	!	!	!LO:HP:b	!	!	!	!	!	!	!	!	!	!	!	!	!	!	!	!
1r	.	2B/ 2d	.	2G\	<	(2g/	2g\	.	<	2GG/ 2G	.	.	2dd/	2bX\	.	2dd\	<	2b\ 2dd	<	2ddyy\	au-	<yy	2ddd\	au-	<
.	.	4.A/ 4.d	.	4.Fn\	.	4.a/)	4.f\	.	.	4.FF/ 4.F	.	.	4.a\ 4.dd	2ryy	.	4.dd\	.	4.a\ 4.dd	.	4.ddyy\	-di	.	4.ddd\	-di	.
.	.	8A/ 8d	.	8F\	[[	8a/	8f\	.	.	8FF/ 8F	.	.	8a\ 8dd	.	.	8dd\	[[	8a\ 8dd	[[	8ddyy\	o-	[[yy	8ddd\	o-	[[
*	*	*	*	*	*	*	*	*	*	*	*	*	*v	*v	*	*	*	*	*	*	*	*	*	*	*
=26	=26	=26	=26	=26	=26	=26	=26	=26	=26	=26	=26	=26	=26	=26	=26	=26	=26	=26	=26	=26	=26	=26	=26	=26
!	!	!	!	!	!	!	!	!	!	!	!	!	!	!	!	!	!	!	!	!	!	!	!	!LO:HP:b
!	!	!	!	!	!	!	!	!	!	!	!	!	!	!	!	!	!	!	!	!	!LO:HP:b	!	!	!
1r	.	2.G#X/ 2.e	.	2.E\	>	2.bX/	2.e\	.	[ >	8.EE/L 8.E	.	.	2.g#X\ 2.eeX	.	2.ee\	>	2.g#X\ 2.ee	>	2.eeyy\	-ra	>	2.eee\	-ra-	>
.	.	.	.	.	.	.	.	.	.	16E/K	.	.	.	.	.	.	.	.	.	.	.	.	.	.
.	.	.	.	.	.	.	.	.	.	8.BB/	.	.	.	.	.	.	.	.	.	.	.	.	.	.
.	.	.	.	.	.	.	.	.	.	16GG#X/Jk	.	.	.	.	.	.	.	.	.	.	.	.	.	.
.	.	.	.	.	.	.	.	.	.	4EE/	.	.	.	.	.	.	.	.	.	.	.	.	.	.
!	!	!	!	!	!	!	!	!	!	!	!	!	!	!	!	!	!	!	!	!	!	!LO:TX:t=P:problem=w rękopisie dalej wpisany tekst słowny	!	!
!	!	!	!	!	!	!	!	!	!	!	!	!	!	!	!	!	!	!	!	!	!	!LO:TX:a:t=Col oboe 1o	!	!
.	.	4r	.	4r	]	4r	4ryy	.	]	8.G#X\L	.	.	8.bX\L 8.dd	.	4r	]	8.b\L 8.dd	]	8.ddyy\L	.	]	8.ddyy\L	.	]
.	.	.	.	.	.	.	.	.	.	16G#\Jk	.	.	16b\Jk 16dd	.	.	.	16b\Jk 16dd	.	16ddyy\Jk	-ti-	.	16ddyy\Jk	-ti-	.
=27	=27	=27	=27	=27	=27	=27	=27	=27	=27	=27	=27	=27	=27	=27	=27	=27	=27	=27	=27	=27	=27	=27	=27	=27
*	*	*	*	*	*	*	*	*	*	*	*	*	*^	*	*	*	*^	*	*	*	*	*	*	*
1r	.	1r	.	1r	.	2r	2ryy	.	.	4A\	.	.	4a\ 4cc	2ryy	.	1r	.	4a\ 4cc	2ryy	.	4ccyy\	-o-	.	4ccyy\	-o-	.
.	.	.	.	.	.	.	.	.	.	8.A\L	.	.	8.a\L 8.cc	.	.	.	.	8.a\L 8.cc	.	.	8.ccyy\L	-nem	.	8.ccyy\L	-nem	.
.	.	.	.	.	.	.	.	.	.	16A\Jk	.	.	16a\Jk 16cc	.	.	.	.	16a\Jk 16cc	.	.	16ccyy\Jk	.	.	16ccyy\Jk	.	.
!	!	!	!	!	!	!	!	!	!	!	!	!	!LO:SIC:v:s=4b/	!	!	!	!	!	!	!	!	!	!	!	!	!
.	.	.	.	.	.	4a/	4f\	.	.	4D\	.	.	4b-/	4a\	.	.	.	4b/	4a\	.	4byy\	.	.	4byy\	.	.
!	!	!	!	!	!	!	!	!	!	!	!	!	!LO:SIC:v:s=4b/	!	!	!	!	!	!	!	!	!	!	!	!	!
.	.	.	.	.	.	4a/	4f#X\	.	.	4D#X\	.	.	4b-/	4a\	.	.	.	4b/	4a\	.	4byy\	me	.	4byy\	me-	.
*	*	*	*	*	*	*	*	*	*	*	*	*	*v	*v	*	*	*	*v	*v	*	*	*	*	*	*	*
!!LO:PB:g=original
=28	=28	=28	=28	=28	=28	=28	=28	=28	=28	=28	=28	=28	=28	=28	=28	=28	=28	=28	=28	=28	=28	=28	=28	=28
*	*	*^	*	*	*	*	*	*	*	*	*	*	*	*	*	*	*	*	*	*	*	*	*	*
!	!	!	!	!	!	!	!	!	!	!	!	!	!	!	!	!LO:TX:t=P:problem=przywrócona początkowa kolejność Oboe i Petit Clarinetto	!	!LO:TX:t=P:problem=przywrócona początkowa kolejność Oboe i Petit Clarinetto	!	!	!	!	!	!	!
!	!	!	!	!	!	!	!	!	!	!	!	!	!	!	!	!LO:TX:a:t=Petit Clar&colon;	!	!LO:TX:a:t=Oboe	!	!	!	!	!	!	!
1r	.	4r	4ryy	.	1r	.	4g#X/	4e\	.	.	4E\	.	.	4g#X\ 4bX	.	2r	.	4g#X\ 4b	.	4r	.	.	4bb\	-am	.
.	.	8.e/L	8.e\L	.	.	.	8.e\L 8.g#	2.ryy	.	.	8.EE/L 8.E	.	.	8.g#\L 8.b	.	.	.	8.g#\L 8.ee	.	8.eee\L	.	.	8.eee\L	.	.
.	.	16e/Jk	16e\Jk	.	.	.	16e\Jk 16g#	.	.	.	16EE/Jk 16E	.	.	16g#\Jk 16b	.	.	.	16g#\Jk 16ee	.	16eee\Jk	.	.	16eee\Jk	.	.
.	.	4e/	4e\	.	.	.	4e\ 4g#	.	.	.	4EE/ 4E	.	.	4g#\ 4b	.	4r	.	4g#\ 4ee	.	4eee\	.	.	4eee\	.	.
.	.	4r	4ryy	.	.	.	4r	.	.	.	4r	.	.	8.eX/L	.	8.e\L	.	4r	.	4r	.	.	8.ee\L	ad	.
.	.	.	.	.	.	.	.	.	.	.	.	.	.	16e/Jk	.	16e\Jk	.	.	.	.	.	.	16ee\Jk	.	.
*	*	*v	*v	*	*	*	*v	*v	*	*	*	*	*	*	*	*	*	*	*	*	*	*	*	*	*
=29	=29	=29	=29	=29	=29	=29	=29	=29	=29	=29	=29	=29	=29	=29	=29	=29	=29	=29	=29	=29	=29	=29	=29
*	*	*	*	*	*	*	*	*	*	*	*	*^	*	*	*	*^	*	*	*	*	*	*	*
!	!	!	!LO:HP:a	!	!	!	!	!	!	!	!	!	!	!	!	!	!	!	!	!	!	!	!	!	!
4C/	.	2c/ 2e	<	2A\	.	2c\ 2a	.	.	2AA\ 2A	.	.	2cc/	2a\	.	2cc\	<	2cc/	2a\	<	1r	.	.	2ccc\	te	.
4r	.	.	.	.	.	.	.	.	.	.	.	.	.	.	.	.	.	.	.	.	.	.	.	.	.
4.GG/	.	4.G/ 4.d	.	4.G\	.	4.BX\ 4.g	.	.	4.GG\ 4.G	.	.	4.dd/	4.bX\	.	4.dd\	.	4.b\ 4.dd	2ryy	.	.	.	.	4.ddd\	om-	.
8GG/	.	8G/ 8d	[[	8F\	.	8B\ 8g	.	.	8FF/ 8F	.	.	8dd/	8b\	.	8dd\	[[	8b\ 8dd	.	.	.	.	.	8ddd\	-nis	.
*	*	*	*	*	*	*	*	*	*	*	*	*	*	*	*	*	*v	*v	*	*	*	*	*	*	*
=30	=30	=30	=30	=30	=30	=30	=30	=30	=30	=30	=30	=30	=30	=30	=30	=30	=30	=30	=30	=30	=30	=30	=30	=30
2CT/	.	2.c/ 2.g	.	2.E\	>	2.c\ 2.g	.	.	8.EE/L 8.E	.	.	2.gg/	2.cc\	.	8r	>	2.cc\ 2.gg	[ >	8r	.	.	2.ggg\	ca-	.
.	.	.	.	.	.	.	.	.	.	.	.	.	.	.	(4g\	.	.	.	(4gg\	.	.	.	.	.
.	.	.	.	.	.	.	.	.	16EE/K	.	.	.	.	.	.	.	.	.	.	.	.	.	.	.
.	.	.	.	.	.	.	.	.	8.GG/	.	.	.	.	.	.	.	.	.	.	.	.	.	.	.
.	.	.	.	.	.	.	.	.	.	.	.	.	.	.	16b\LL	.	.	.	16ccc\LL	.	.	.	.	.
.	.	.	.	.	.	.	.	.	16C/Jk	.	.	.	.	.	16ee\JJ	.	.	.	16eee\JJ)	.	.	.	.	.
4C/	.	.	.	.	.	.	.	.	4E\	.	.	.	.	.	4gg\)	.	.	.	4gg\	.	.	.	.	.
4r	.	8.d/L 8.f	.	8.F\L	]	8.f\L 8.a	.	.	8.F\L	.	.	8.dd\L 8.ff	4ryy	.	4r	]	8.dd\L 8.ff	]	8.ff\L	.	.	8.fff\L	-ro	.
.	.	16d/Jk 16f	.	16F\Jk	.	16f\Jk 16a	.	.	16F\Jk	.	.	16dd\Jk 16ff	.	.	.	.	16dd\Jk 16ff	.	16ff\Jk	.	.	16fff\Jk	.	.
=31	=31	=31	=31	=31	=31	=31	=31	=31	=31	=31	=31	=31	=31	=31	=31	=31	=31	=31	=31	=31	=31	=31	=31	=31
*	*	*	*	*	*	*^	*	*	*	*	*	*	*	*	*	*	*^	*	*	*	*	*	*	*
2r	.	4c/ 4e	.	8.G\L	.	4g/	4g\	.	.	8.G\L	.	.	4cc\ 4eeX	2ryy	.	1r	.	4cc\ 4ee	2ryy	.	4ee\	.	.	4eee\	ve-	.
.	.	.	.	16G\K	.	.	.	.	.	16G\K	.	.	.	.	.	.	.	.	.	.	.	.	.	.	.	.
.	.	8.c/L 8.e	.	8.E\	.	8.g/L	8.g\L	.	.	8.E\	.	.	8.cc\L 8.ee	.	.	.	.	8.cc\L 8.ee	.	.	8.ee\L	.	.	8.eee\L	.	.
.	.	16c/Jk 16e	.	16C\Jk	.	16g/Jk	16g\Jk	.	.	16C\Jk	.	.	16cc\Jk 16ee	.	.	.	.	16cc\Jk 16ee	.	.	16ee\Jk	.	.	16eee\Jk	.	.
4r	.	4G/ 4d	.	4GG/	.	4g/	4g\	.	.	4GG/	.	.	4dd/	4cc\	.	.	.	4dd/	4cc\	.	4dd\	.	.	4ddd\	.	.
!	!	!	!	!	!	!	!	!	!	!	!	!	!LO:SIC:v:s=4cc#	!	!	!	!	!	!	!	!	!	!	!	!	!
4GG/	.	4G/ 4d	.	4GG/	.	4g/	4g\	.	.	4GG/ 4F	.	.	4gg/	4b-\	.	.	.	4gg/	4b\	.	4gg\	.	.	4ggg\	-ni-	.
*	*	*	*	*	*	*v	*v	*	*	*	*	*	*v	*v	*	*	*	*	*	*	*	*	*	*	*	*
=	=	=	=	=	=	=	=	=	=	=	=	=	=	=	=	=	=	=	=	=	=	=	=	=
*	*	*	*	*	*	*	*	*	*^	*	*	*	*	*	*	*	*	*	*	*	*	*	*	*
4C/	.	4c/ 4e	.	4C/	.	4c/ 4g	.	.	4E/	4C\	.	.	4cc\	.	4r	.	4ee/	4cc\	.	4cc\	.	.	4ccc\	-et.	.
8.C/L	.	8.e/L 8.cc	.	8.C/L	.	8.c/L 8.g	.	.	8.C\L 8.c	2ryy	.	.	8.ee-\L 8.ccc	.	8.cc\L	.	8.ee\L 8.ccc	2ryy	.	8.ccc\L	.	.	8.ccc\L	.	.
16C/Jk	.	16e/Jk 16cc	.	16C/Jk	.	16c/Jk 16g	.	.	16C\Jk 16c	.	.	.	16ee-\Jk 16ccc	.	16cc\Jk	.	16ee\Jk 16ccc	.	.	16ccc\Jk	.	.	16ccc\Jk	.	.
4C/	.	4e/ 4cc	.	4C/	.	4c/ 4g	.	.	4C\ 4c	.	.	.	4ee-\ 4ccc	.	4cc\	.	4ee\ 4ccc	.	.	4ccc\	.	.	4ccc\	.	.
*	*	*	*	*	*	*	*	*	*v	*v	*	*	*	*	*	*	*v	*v	*	*	*	*	*	*	*
=32:|!	=32:|!	=32:|!	=32:|!	=32:|!	=32:|!	=32:|!	=32:|!	=32:|!	=32:|!	=32:|!	=32:|!	=32:|!	=32:|!	=32:|!	=32:|!	=32:|!	=32:|!	=32:|!	=32:|!	=32:|!	=32:|!	=32:|!	=32:|!
*>E	*>E	*>E	*>E	*>E	*>E	*>E	*>E	*>E	*>E	*>E	*>E	*>E	*>E	*>E	*>E	*>E	*>E	*>E	*>E	*>E	*>E	*>E	*>E
!!LO:TX:a:t=Coda
!	!	!	!	!	!	!	!	!	!LO:TX:a:t=Requiem	!	!	!	!	!	!	!	!	!	!	!	!	!	!
4r	.	4r	.	4r	.	4r	.	.	8.C/L	.	p	4r	.	4r	.	4r	.	4r	.	.	4r	.	.
.	.	.	.	.	.	.	.	.	16C/Jk	.	.	.	.	.	.	.	.	.	.	.	.	.	.
=33	=33	=33	=33	=33	=33	=33	=33	=33	=33	=33	=33	=33	=33	=33	=33	=33	=33	=33	=33	=33	=33	=33	=33
*	*	*	*	*	*	*^	*	*	*	*	*	*	*	*	*	*^	*	*	*	*	*	*	*
!	!	!	!	!	!	!	!	!	!LO:DY:b	!	!	!	!	!	!	!	!	!	!	!	!	!	!	!	!
2.CT/	pp	1r	.	1r	.	4r	4ryy	.	p	2.CC/ 2.C	.	.	2r	.	1r	.	2r	1rd	.	1r	.	.	1r	.	.
!	!	!	!	!	!	!LO:TX:b:t=Requiem	!	!	!	!	!	!	!	!	!	!	!	!	!	!	!	!	!	!	!
.	.	.	.	.	.	8.c/L	8.c\L	.	.	.	.	.	.	.	.	.	.	.	.	.	.	.	.	.	.
.	.	.	.	.	.	16c/Jk	16c\Jk	.	.	.	.	.	.	.	.	.	.	.	.	.	.	.	.	.	.
.	.	.	.	.	.	2b-\	2g\	.	.	.	.	.	4r	.	.	.	4r	.	.	.	.	.	.	.	.
!	!	!	!	!	!	!	!	!	!	!	!	!	!	!	!	!	!	!	!LO:DY:a	!	!	!	!	!	!
8C/	.	.	.	.	.	.	.	.	.	8.C/L	Requiem	.	[4G/ [4c	p	.	.	[4e/	.	p	.	.	.	.	.	.
8r	.	.	.	.	.	.	.	.	.	.	.	.	.	.	.	.	.	.	.	.	.	.	.	.	.
.	.	.	.	.	.	.	.	.	.	16C/Jk	.	.	.	.	.	.	.	.	.	.	.	.	.	.	.
=34	=34	=34	=34	=34	=34	=34	=34	=34	=34	=34	=34	=34	=34	=34	=34	=34	=34	=34	=34	=34	=34	=34	=34	=34	=34
*rep	*	*	*	*	*	*	*	*	*	*	*	*	*	*	*	*	*	*	*	*	*	*	*	*	*
!	!	!	!	!	!	!	!	!	!	!LO:TX:a:t=eis	!	!	!	!	!	!	!	!	!	!	!	!	!	!	!
2.CT/	pp	1r	.	1r	.	4r	4ryy	.	.	2.CC/ 2.C	.	.	4G/] 4c]	.	1r	.	4e/]	1r	.	1r	.	.	1r	.	.
!	!	!	!	!	!	!LO:TX:b:t=Requiem	!	!	!	!	!	!	!	!	!	!	!	!	!	!	!	!	!	!	!
.	.	.	.	.	.	8.c/L	8.c\L	.	.	.	.	.	4r	.	.	.	4r	.	.	.	.	.	.	.	.
.	.	.	.	.	.	16c/Jk	16c\Jk	.	.	.	.	.	.	.	.	.	.	.	.	.	.	.	.	.	.
!	!	!	!	!	!	!LO:N:vis=2.	!LO:N:vis=2.	!	!	!	!	!	!	!	!	!	!	!	!	!	!	!	!	!	!
.	.	.	.	.	.	2a-X/	2f\	.	.	.	.	.	4r	.	.	.	4r	.	.	.	.	.	.	.	.
8C/	.	.	.	.	.	.	.	.	.	8.C/L	dona	.	([4A-X/ 4c	.	.	.	[4f/	.	.	.	.	.	.	.	.
8r	.	.	.	.	.	.	.	.	.	.	.	.	.	.	.	.	.	.	.	.	.	.	.	.	.
.	.	.	.	.	.	.	.	.	.	16C/Jk	.	.	.	.	.	.	.	.	.	.	.	.	.	.	.
*Xrep	*	*	*	*	*	*	*	*	*	*	*	*	*	*	*	*	*	*	*	*	*	*	*	*	*
*	*	*	*	*	*	*v	*v	*	*	*	*	*	*	*	*	*	*v	*v	*	*	*	*	*	*	*
=35	=35	=35	=35	=35	=35	=35	=35	=35	=35	=35	=35	=35	=35	=35	=35	=35	=35	=35	=35	=35	=35	=35	=35
!	!	!	!	!	!	!	!	!	!	!	!LO:DY:b	!	!	!	!	!	!	!	!	!	!	!	!
!	!	!	!	!	!	!	!	!LO:DY:b	!	!	!	!	!	!	!	!	!	!	!	!	!	!	!
1CT	ff	1f 1a-X	ff	1C	.	1f 1a-X	.	ff	1CC 1C	eis domi	ff	8A-\]) 8B-	.	8r	.	1Bn 1f]	.	8ryy	.	.	8r	.	.
!	!	!	!	!	!	!	!	!	!	!	!	!	!	!	!	!	!	!LO:TX:b:t=Col 1o	!	!	!	!	!
.	.	.	.	.	.	.	.	.	.	.	.	8aa-X|\L	.	8aa-X\L	.	.	ff	8aaa-yyX|\L	.	ff	8aaa-X|\L	.	.
.	.	.	.	.	.	.	.	.	.	.	.	8ff|\	.	8ff\	.	.	.	8fffyy|\	.	.	8fff|\	.	.
.	.	.	.	.	.	.	.	.	.	.	.	8dd|\J	.	8dd\J	.	.	.	8dddyy|\J	.	.	8ddd|\J	.	.
.	.	.	.	.	.	.	.	.	.	.	.	8bX|\L	.	8bX\L	.	.	.	8bbnyy|\L	.	.	8bbn|\L	.	.
.	.	.	.	.	.	.	.	.	.	.	.	8a-X|\	.	8a-X\	.	.	.	8aa-yyX|\	.	.	8aa-X|\	.	.
.	.	.	.	.	.	.	.	.	.	.	.	8f|\	.	8f\	.	.	.	8ffyy|\	.	.	8ff|\	.	.
.	.	.	.	.	.	.	.	.	.	.	.	8d|\J	.	8d\J	.	.	.	8ddyy|\J	.	.	8dd|\J	.	.
!!LO:PB:g=original
=36	=36	=36	=36	=36	=36	=36	=36	=36	=36	=36	=36	=36	=36	=36	=36	=36	=36	=36	=36	=36	=36	=36	=36
*	*	*^	*	*	*	*	*	*	*	*	*	*	*	*	*	*	*	*	*	*	*	*	*
!	!	!	!	!	!	!	!	!	!	!LO:TX:a:t=ne	!	!	!	!	!	!	!	!	!	!	!	!	!	!
4C/	.	2.g/	2.e\	.	2.C/	.	2.c/ 2.g	ne	.	2.CC/ 2.C	.	.	2.c/ 2.eX	.	2enX\	.	2.e/ 2.cc	.	2.eeyy\	.	.	2.ee\	.	.
8.C/L	.	.	.	.	.	.	.	.	.	.	.	.	.	.	.	.	.	.	.	.	.	.	.	.
16C/Jk	.	.	.	.	.	.	.	.	.	.	.	.	.	.	.	.	.	.	.	.	.	.	.	.
4C/	.	.	.	.	.	.	.	.	.	.	.	.	.	.	2r	.	.	.	.	.	.	.	.	.
!	!	!	!	!	!	!	!	!	!	!LO:TX:a:t=Requiem	!	!	!	!	!	!	!	!	!	!	!	!	!	!
4r	.	4r	4ryy	.	4r	.	4r	.	.	8.C/L	.	.	4r	.	.	.	4r	.	4ryy	.	.	4r	.	.
.	.	.	.	.	.	.	.	.	.	16C/Jk	.	.	.	.	.	.	.	.	.	.	.	.	.	.
*	*	*v	*v	*	*	*	*	*	*	*	*	*	*	*	*	*	*	*	*	*	*	*	*	*
=37	=37	=37	=37	=37	=37	=37	=37	=37	=37	=37	=37	=37	=37	=37	=37	=37	=37	=37	=37	=37	=37	=37	=37
*	*	*	*	*	*	*^	*	*	*	*	*	*	*	*	*	*	*	*	*	*	*	*	*
2CT/	.	1r	.	1r	.	4r	4ryy	.	.	2.CC/ 2.C	.	.	2r	.	1r	.	2r	.	1ryy	.	.	1r	.	.
.	.	.	.	.	.	8.c/L	8.c\L	Re-	.	.	.	.	.	.	.	.	.	.	.	.	.	.	.	.
.	.	.	.	.	.	16c/Jk	16c\Jk	-qui-	.	.	.	.	.	.	.	.	.	.	.	.	.	.	.	.
!	!	!	!	!	!	!LO:TX:t=P:LO:N:vis=2.:problem	!	!	!	!	!	!	!	!	!	!	!	!	!	!	!	!	!	!
4C/	.	.	.	.	.	2g\ 2b-	2ryy	-em	.	.	.	.	4r	.	.	.	4r	.	.	.	.	.	.	.
!	!	!	!	!	!	!	!	!	!	!	!	!	!	!	!	!	!	!LO:DY:a	!	!	!	!	!	!
4r	.	.	.	.	.	.	.	.	.	8.C/L	Re-	.	[4G/ [4c	p	.	.	[4en/	p	.	.	.	.	.	.
.	.	.	.	.	.	.	.	.	.	16C/Jk	-qu-	.	.	.	.	.	.	.	.	.	.	.	.	.
=38	=38	=38	=38	=38	=38	=38	=38	=38	=38	=38	=38	=38	=38	=38	=38	=38	=38	=38	=38	=38	=38	=38	=38	=38
*rep	*	*	*	*	*	*	*	*ij	*	*rep	*	*	*	*	*	*	*	*	*	*	*	*	*	*
2CT/	.	1r	.	1r	.	4r	4ryy	.	.	2.CC/ 2.C	-iem	.	4G/] 4c]	.	1r	.	4e/]	.	1ryy	.	.	1r	.	.
.	.	.	.	.	.	8.c/L	8.c\L	Re-	.	.	.	.	4r	.	.	.	4r	.	.	.	.	.	.	.
.	.	.	.	.	.	16c/Jk	16c\Jk	-qui-	.	.	.	.	.	.	.	.	.	.	.	.	.	.	.	.
!	!	!	!	!	!	!LO:TX:t=P:LO:N:vis=2.:problem	!	!	!	!	!	!	!	!	!	!	!	!	!	!	!	!	!	!
!	!	!	!	!	!	!LO:TX:t=P:LO:N:vis=2.:problem	!	!	!	!	!	!	!	!	!	!	!	!	!	!	!	!	!	!
4C/	.	.	.	.	.	2a-X/	2f\	-em	.	.	.	.	4r	.	.	.	4r	.	.	.	.	.	.	.
4r	.	.	.	.	.	.	.	.	.	8.C/L	do-	.	([4A-X/ 4c	.	.	.	4f/	.	.	.	.	.	.	.
.	.	.	.	.	.	.	.	.	.	16C/Jk	-na	.	.	.	.	.	.	.	.	.	.	.	.	.
*Xrep	*	*	*	*	*	*	*	*Xij	*	*Xrep	*	*	*	*	*	*	*	*	*	*	*	*	*	*
*	*	*	*	*	*	*v	*v	*	*	*	*	*	*	*	*	*	*	*	*	*	*	*	*	*
=39	=39	=39	=39	=39	=39	=39	=39	=39	=39	=39	=39	=39	=39	=39	=39	=39	=39	=39	=39	=39	=39	=39	=39
!	!	!	!	!	!	!	!	!LO:DY:b	!	!	!LO:HP:b	!	!	!	!	!	!	!	!	!	!	!	!
!	!	!	!	!	!	!	!	!LO:HP:b	!	!	!LO:DY:b	!	!	!	!	!	!	!	!	!	!	!	!
1CT	ff > ]]	1f 1a-X	.	1C	ff	1f 1a-X	.	ff > ]]	1C	eis domi-	ff > ]]	8A-/]) 8B	.	8r	.	1f	>]	8ryy	.	.	8r	.	.
!	!	!	!	!	!	!	!	!	!	!	!	!	!	!	!	!	!	!	!	!	!	!	!LO:DY:b
!	!	!	!	!	!	!	!	!	!	!	!	!	!	!	!LO:DY:a	!	!	!	!	!	!	!	!
.	.	.	.	.	.	.	.	.	.	.	.	8aa-X'\L	ff	8aa-X\L	ff	.	.	8aaa-yyX'\L	.	.	8aaa-X'\L	.	ff
.	.	.	.	.	.	.	.	.	.	.	.	8ff'\	.	8ff\	.	.	.	8fffyy'\	.	.	8fff'\	.	.
.	.	.	.	.	.	.	.	.	.	.	.	8dd'\J	.	8dd\J	.	.	.	8dddyy'\J	.	.	8ddd'\J	.	.
!	!	!	!	!	!	!	!	!	!	!	!	!	!	!	!	!	!	!	!	!LO:HP:b	!	!	!
!	!	!	!	!	!	!	!	!	!	!	!	!	!	!	!	!	!	!	!	!	!	!	!LO:HP:b
.	.	.	.	.	.	.	.	.	.	.	.	8bX'\L	>	8bX\L	>	.	.	8bbnyy'\L	.	>	8bbn'\L	.	>
.	.	.	.	.	.	.	.	.	.	.	.	8a-X'\	.	8a-X\	.	.	.	8aa-yyX'\	.	.	8aa-X'\	.	.
.	.	.	.	.	.	.	.	.	.	.	.	8f'\	.	8f\	.	.	.	8ffyy'\	.	.	8ff'\	.	.
.	.	.	.	.	.	.	.	.	.	.	.	8d'\J	]]	8d\J	]]	.	.	8ddyy'\J	.	]]	8dd'\J	.	]]
=40	=40	=40	=40	=40	=40	=40	=40	=40	=40	=40	=40	=40	=40	=40	=40	=40	=40	=40	=40	=40	=40	=40	=40
*	*	*	*	*	*	*	*	*	*^	*	*	*^	*	*	*	*^	*	*	*	*	*	*	*
!	!	!	!	!	!	!	!	!	!	!	!	!	!	!	!	!	!	!	!	!	!	!	!	!	!	!LO:HP:b
!	!	!	!	!	!	!	!	!	!	!	!	!	!	!	!	!	!	!	!	!	!	!	!	!	!	!LO:DY:b
!	!	!	!	!	!	!	!	!LO:DY:b	!	!	!	!	!	!	!	!	!	!	!	!	!	!	!	!	!	!
4C/	.	2e/ 2g	.	2C/	.	1e 1g	.	p	2C/	2CC/	-ne	.	2eX/	2c\	.	2c/	.	2e/	2c/	.	2cc\	.	.	(2ee\	.	p <
4r	.	.	.	.	.	.	.	.	.	.	.	.	.	.	.	.	.	.	.	.	.	.	.	.	.	.
!	!	!	!	!	!	!	!	!	!	!	!	!	!	!	!LO:DY:a	!	!	!	!	!	!	!	!	!	!	!
!	!	!	!	!	!	!	!	!	!	!	!	!	!	!	!	!	!	!	!	!	!	!	!	!	!	!LO:HP:b
!	!	!	!	!	!	!	!	!	!	!	!	!LO:DY:b	!	!	!	!	!	!	!	!	!	!	!	!	!	!
2r	.	2r	.	2r	.	.	.	.	4.c/	2C\	do-	p	(4.cc/	2eX\	p	2r	.	4.ccc/	2r	p	2r	.	.	4.ccc\	.	[ >
.	.	.	.	.	.	.	.	.	8B-X/	.	-na	.	8b-X/)	.	.	.	.	8bb-X/	.	.	.	.	.	8bb-X\)	.	]]
=41	=41	=41	=41	=41	=41	=41	=41	=41	=41	=41	=41	=41	=41	=41	=41	=41	=41	=41	=41	=41	=41	=41	=41	=41	=41	=41
!	!	!	!	!	!	!	!	!	!	!	!	!	!	!	!	!	!	!	!	!	!	!	!	!	!	!LO:DY:b
1r	.	1r	.	1r	.	1f 1a-X	.	.	4.A-X/	1C	e-	.	(4.a-X/	2f\	.	1r	.	(4.aa-X/	1r	.	1r	.	.	(4.aa-X\	.	pp
.	.	.	.	.	.	.	.	.	16B-X/LL	.	.	.	16b-/LL	.	.	.	.	16bb-X/LL	.	.	.	.	.	16bb-X\LL	.	.
.	.	.	.	.	.	.	.	.	16A-/JJ	.	.	.	16a-/JJ	.	.	.	.	16aa-/JJ	.	.	.	.	.	16aa-\JJ	.	.
.	.	.	.	.	.	.	.	.	4G/	.	is	.	4g/	2A-X\	.	.	.	4gg/	.	.	.	.	.	4gg'\	.	.
.	.	.	.	.	.	.	.	.	4F/	.	.	.	4f/)	.	.	.	.	4ff/)	.	.	.	.	.	4ff'\)	.	.
*	*	*	*	*	*	*	*	*	*v	*v	*	*	*	*	*	*	*	*v	*v	*	*	*	*	*	*	*
*	*	*	*	*	*	*	*	*	*	*	*	*v	*v	*	*	*	*	*	*	*	*	*	*	*
=42	=42	=42	=42	=42	=42	=42	=42	=42	=42	=42	=42	=42	=42	=42	=42	=42	=42	=42	=42	=42	=42	=42	=42
!	!	!	!	!	!	!	!	!	!	!	!	!	!	!	!	!	!	!	!	!	!	!	!LO:DY:a
!	!	!	!	!	!	!	!	!	!	!	!LO:HP:b	!	!	!	!	!	!	!	!	!	!	!	!
1CTT	<	1r	.	1r	.	[>1c [1g	.	.	[1C [1E	Do-	<	[1G [1eX	.	1r	.	[>1ee [1gg	<	1r	.	.	[1gg	.	<
=43	=43	=43	=43	=43	=43	=43	=43	=43	=43	=43	=43	=43	=43	=43	=43	=43	=43	=43	=43	=43	=43	=43	=43
*	*	*^	*	*	*	*	*	*	*	*	*	*	*	*	*	*	*	*	*	*	*	*	*
1CTTT	[[	2r	2.ryy	.	1r	.	1c] 1g]	.	.	1C] 1E]	-mi-	.	1G] 1e]	.	2r	<	1ee] 1gg]	.	2r	.	.	1gg]	.	[[
.	.	4r	.	.	.	.	.	.	.	.	.	.	.	.	4r	.	.	.	4r	.	.	.	.	.
.	.	8r	8ryy	.	.	.	.	.	.	.	.	.	.	.	8r	.	.	.	8r	.	.	.	.	.
.	.	16e/LL	16e\LL	.	.	.	.	.	.	.	.	.	.	.	(16c\LL	.	.	.	16ee\LL	.	.	.	.	.
.	.	16g/JJ	16g\JJ	.	.	.	.	.	.	.	.	.	.	.	16e\JJ)	[[	.	.	16gg\JJ	.	.	.	.	.
*	*	*v	*v	*	*	*	*	*	*	*	*	*	*	*	*	*	*	*	*	*	*	*	*	*
=44	=44	=44	=44	=44	=44	=44	=44	=44	=44	=44	=44	=44	=44	=44	=44	=44	=44	=44	=44	=44	=44	=44	=44
*	*	*	*	*	*	*	*	*	*	*	*	*	*	*	*	*	*	*^	*	*	*	*	*
!	!	!	!	!	!	!	!	!	!	!	!	!	!	!	!	!	!	!	!	!	!	!	!	!LO:DY:a
!	!	!	!	!	!	!	!	!	!	!	!LO:HP:b	!	!	!	!	!	!	!	!	!	!	!	!	!
2CTTT/	>	1c; 1cc	.	1C;	>]	1c; 1g	.	.	1C; 1E	-ne	[ >]	1G; 1e-X	.	1g;	>]	1ee; 1gg	[ >]	1ccc;	1r;>	.	.	1gg;	.	>]
4C/	.	.	.	.	.	.	.	.	.	.	.	.	.	.	.	.	.	.	.	.	.	.	.	.
4r;	]	.	.	.	.	.	.	.	.	.	.	.	.	.	.	.	.	.	.	.	.	.	.	.
*	*	*	*	*	*	*	*	*	*	*	*	*	*	*	*	*	*	*v	*v	*	*	*	*	*
==	==	==	==	==	==	==	==	==	==	==	==	==	==	==	==	==	==	==	==	==	==	==	==
*-	*-	*-	*-	*-	*-	*-	*-	*-	*-	*-	*-	*-	*-	*-	*-	*-	*-	*-	*-	*-	*-	*-	*-
!!!system-decoration: (g1,g2,s10)
!!!RDF**kern: > = above
!!!RDF**kern: < = below
!!!RDF**kern: | = vertical stroke
!!!RDF**dynam: ff = ffo
!!!ENC: Tomasz Grochalski
!!!END: 2021-06-07
